X:1
T:Title
%%score { 1 | 2 }
L:1/8
Q:1/4=100
M:4/4
K:Eb
V:1 treble nm="Grand Piano"
V:2 bass 
V:1
 G3 G A2 G2 | B2 A2 G2 F2 | c3 B A2 G2 | [DF]8 | G3 G F2 F2 | B3 G [C=EA]2 [B,EG]2 | %6
w: S.~M.~Bixby * * *||||||
 [A,F]3 [A,EF] [B,DG]2 [A,DF]2 | [G,E]8 | [Ge]3 [Gd] c2 d2 | e2 c2 c2 B2 | G3 G [_DEB]2 [CEA]2 | %11
w: |||||
 [B,DF]8 | [B,EG]3 [B,EG] [CEA]2 [B,EG]2 | [_DGB]2 [CFA]2 [=B,=DG]2 [G,DF]2 | %14
w: |||
 [G,CE]3 [A,E] [B,EG]2 [A,DF]2 | [G,E]8 |] %16
w: ||
V:2
 [E,B,E]3 [E,B,E] [E,CE]2 [E,B,E]2 | [G,B,E]2 [F,CE]2 [B,D]2 [A,B,D]2 | %2
 [G,B,E]3 [G,B,E] [F,B,D]2 [E,B,E]2 | [B,,B,]8 | [E,B,E]3 [E,B,E] [A,B,D]2 [A,B,D]2 | %5
 [G,B,E]3 [E,B,E] C,2 C,2 | F,3 F, B,,2 B,,2 | E,8 | [E,B,]3 [E,B,][K:treble] [A,CA]2 [A,B,F]2 | %9
 [G,B,E]2 [A,E]2 [E,A,E]2 [E,G,E]2 | [E,B,E]3 [E,B,E] G,,2 A,,2 | B,,8 | E,3 E, E,2 E,2 | %13
 =E,2 F,2 G,2 =B,,2 | C,3 C, B,,2 B,,2 | E,8 |] %16

